X:212
M:6/8
L:1/8
K:G
|:B/c/|dBd dBd|gag g<fe|dBd dcB|AFD D2 B/c/|1 dBd dBd gag g<fe|dcB AGF|

